static/assets/img/icons/theme/communication/call-1.svg

<svg height="24" viewBox="0 0 24 24" width="24" xmlns="http://www.w3.org/2000/svg"><g fill="none" fill-rule="evenodd"><path d="m0 0h24v24h-24z" opacity="0"/><path d="m11.914857 14.1427403 2.2040257-2.2040258c.6087205-.6087205.7596295-1.5386634.3746408-2.30864072l-.1248802-.24976055c-.3849887-.76997732-.2340797-1.69992023.3746408-2.30864075l2.7328041-2.73280409c.1952621-.19526215.5118446-.19526215.7071068 0 .0380006.03800065.0696264.08187913.0936602.12994659l1.1039757 2.2079514c.8445546 1.68910922.5135036 3.72913702-.8218544 5.06449512l-5.9988255 5.9988255c-1.4535395 1.4535395-3.60356092 1.9610907-5.55368879 1.3110481l-2.41447961-.8048266c-.26197166-.0873239-.40355165-.3704839-.31622776-.6324555.0245464-.0736392.06590082-.1405521.12078825-.1954395l2.65127182-2.6512718c.60872053-.6087206 1.53866344-.7596295 2.30864076-.3746409l.24976054.1248803c.76997729.3849887 1.69992019.2340797 2.30864079-.3746408z" fill="#000"/></g></svg>

<svg width="24px" height="24px" viewBox="0 0 24 24" version="1.1" xmlns="http://www.w3.org/2000/svg" xmlns:xlink="http://www.w3.org/1999/xlink">
    <title>Icon For Call#1</title>
    <g stroke="none" stroke-width="1" fill="none" fill-rule="evenodd">
        <rect opacity="0" x="0" y="0" width="24" height="24"></rect>
        <path d="M11.914857,14.1427403 L14.1188827,11.9387145 C14.7276032,11.329994 14.8785122,10.4000511 14.4935235,9.63007378 L14.3686433,9.38031323 C13.9836546,8.61033591 14.1345636,7.680393 14.7432841,7.07167248 L17.4760882,4.33886839 C17.6713503,4.14360624 17.9879328,4.14360624 18.183195,4.33886839 C18.2211956,4.37686904 18.2528214,4.42074752 18.2768552,4.46881498 L19.3808309,6.67676638 C20.2253855,8.3658756 19.8943345,10.4059034 18.5589765,11.7412615 L12.560151,17.740087 C11.1066115,19.1936265 8.95659008,19.7011777 7.00646221,19.0511351 L4.5919826,18.2463085 C4.33001094,18.1589846 4.18843095,17.8758246 4.27575484,17.613853 C4.30030124,17.5402138 4.34165566,17.4733009 4.39654309,17.4184135 L7.04781491,14.7671417 C7.65653544,14.1584211 8.58647835,14.0075122 9.35645567,14.3925008 L9.60621621,14.5173811 C10.3761935,14.9023698 11.3061364,14.7514608 11.914857,14.1427403 Z" fill="#000000"></path>
    </g>
</svg>
